!!!OTL: Totenamt Es taget in oesteriche,
!!!ARE: Europa, Mitteleuropa, Deutschland (BRD), Schwarzwald
!!!YOR: 3, S. 155
!!    1439 Handschrift aus St. Blasien (ca.)
!!!SCT: Q0061A
!!!YEM: Copyright 1995, estate of Helmut Schaffrath.
**kern
*ICvox
*Ivox
!! Irregular meter.
*MX
*k[b-]
*d:
{2d
=1
3d
3d
3d
2d
2d
=2
3g
3a
3fn
4e}
{2d
=3
2g
4a
2g
2fn
=4
2e}
=5
{4fn
=6
2e
4g
4a
4g
=7
4fn
4e
4d}
{2g
=8
2a
8fn
8e
8d
8cn
2d
=9
8fn
4e
8d
2cn}
==
!!!AGN: Ballade, Liebe, Eifersucht, Tod; "Purengesanck"
!!!ONB: ESAC (Essen Associative Code) Database: BALLADE
!!!AMT: irregular
!!!AIN: vox
!!!EED: Helmut Schaffrath
!!!EEV: 1.0
*-
